; generated by Lite Slicer 0.1.28b on 2025-06-05 at 16:32:57 UTC


;
;
; 

; external perimeters extrusion width = 0.42mm
; perimeters extrusion width = 0.45mm
; infill extrusion width = 0.45mm
; solid infill extrusion width = 0.42mm
; top infill extrusion width = 0.42mm
; first layer extrusion width = 0.50mm

;TYPE:Custom
G9111 bedTemp=90 extruderTemp=245
M117
M900 K0.05
G21 ; set units to millimeters
G90 ; use absolute coordinates
M83 ; use relative distances for extrusion
T0
M107
;LAYER_CHANGE
;Z:0.24
;HEIGHT:0.24
; BEFORE_LAYER_CHANGE 0 @ 0.24mm
G92 E0
G1 E-2 F4800
G1 Z.24 F18000
; AFTER_LAYER_CHANGE 0 @ 0.24mm
M204 S10000
G1 X136.374 Y123.74
G1 E2 F4800
M204 S5000
;TYPE:External perimeter
;WIDTH:0.5
G1 F2578
G1 X136.503 Y125.445 E.07652
G1 X136.36 Y127.31 E.08371
G1 X135.937 Y129.128 E.08353
G1 X135.244 Y130.855 E.08328
G1 X134.299 Y132.448 E.08289
G1 X133.125 Y133.867 E.08242
G1 X131.752 Y135.078 E.08193
G1 X130.215 Y136.052 E.08143
G1 X128.55 Y136.768 E.08111
G1 X126.803 Y137.202 E.08056
G1 X125.818 Y137.315 E.04437
G1 X125 Y137.382 E.03673
G1 X124.004 Y137.3 E.04472
G1 X123.198 Y137.203 E.03633
G1 X121.45 Y136.768 E.08061
G1 X119.785 Y136.052 E.08111
G1 X118.247 Y135.079 E.08144
G1 X116.875 Y133.867 E.08192
G1 X115.701 Y132.448 E.08242
G1 X114.756 Y130.855 E.08289
G1 X114.063 Y129.129 E.08323
G1 X113.64 Y127.31 E.08357
G1 X113.497 Y125.445 E.08371
G1 X113.639 Y123.581 E.08366
G1 X114.06 Y121.762 E.08355
G1 X114.752 Y120.034 E.0833
G1 X115.696 Y118.439 E.08294
G1 X116.869 Y117.018 E.08246
G1 X118.242 Y115.805 E.08199
G1 X119.781 Y114.83 E.08153
G1 X121.448 Y114.115 E.08117
G1 X123.202 Y113.68 E.08087
G1 X125 Y113.533 E.08073
G1 X126.798 Y113.679 E.08073
G1 X128.552 Y114.115 E.08088
G1 X130.219 Y114.829 E.08115
G1 X131.758 Y115.805 E.08155
G1 X133.131 Y117.018 E.08199
G1 X134.304 Y118.44 E.08249
G1 X135.249 Y120.033 E.08289
G1 X135.94 Y121.762 E.08333
G1 X136.362 Y123.581 E.08356
G1 X136.369 Y123.681 E.00449
M204 S15000
G1 X136.742 Y123.897 F18000
G1 E-1.4 F4800
;WIPE_START
G1 F14400
G1 X136.503 Y125.445 E-.56021
G1 X136.493 Y125.57 E-.03979
;WIPE_END
M204 S10000
G1 X130.119 Y114.299 F18000
G1 E2 F4800
M204 S5000
;TYPE:Perimeter
G1 F2578
G1 X128.695 Y113.689 E.06933
G1 X126.871 Y113.235 E.08412
G1 X125 Y113.083 E.08401
G1 X123.129 Y113.235 E.08401
G1 X121.305 Y113.689 E.08412
G1 X119.871 Y114.303 E.06981
G1 X121.282 Y113.684 E.06895
G1 X123.117 Y113.218 E.08472
G1 X125 Y113.061 E.08456
G1 X126.883 Y113.218 E.08456
G1 X128.718 Y113.684 E.08472
G1 X130.064 Y114.275 E.06579
M204 S15000
M204 S10000
G1 X130.607 Y114.544 F18000
M204 S5000
G1 F2578
G1 X130.445 Y114.442 E.00857
G1 X130.556 Y114.511 E.00585
M204 S15000
G1 E-1.4 F4800
;WIPE_START
G1 F14400
G1 X130.445 Y114.442 E-.04139
G1 X130.556 Y114.511 E-.04139
;WIPE_END
G1 E-.51722 F4800
M204 S10000
G1 X119.555 Y114.442 F18000
G1 E2 F4800
M204 S5000
G1 F2578
G1 X119.381 Y114.552 E.00921
G1 X119.504 Y114.472 E.00657
M204 S15000
G1 E-1.4 F4800
;WIPE_START
G1 F14400
G1 X119.381 Y114.552 E-.04646
G1 X119.504 Y114.472 E-.04646
;WIPE_END
G1 E-.50708 F4800
M204 S10000
G1 X136.809 Y123.546 F18000
G1 E2 F4800
M204 S5000
G1 F2578
G1 X137.94 Y127.474 Z.24 E.18292
G1 X139.071 Y131.402 Z.24 E.18292
G1 X140.202 Y135.33 Z.24 E.18292
G1 X132.73 Y141.63 E.43737
G1 X132.67 Y141.656 E.00293
G1 X117.33 Y141.656 E.68648
G1 X117.27 Y141.63 E.00293
G1 X109.796 Y135.328 E.4375
G1 X110.928 Y131.398 Z.24 E.18302
G1 X112.06 Y127.468 Z.24 E.18302
G1 X113.192 Y123.538 Z.24 E.18302
G1 X113.047 Y125.446 E.08563
G1 X113.195 Y127.379 E.08676
G1 X113.634 Y129.264 E.08661
G1 X114.353 Y131.054 E.08633
G1 X115.333 Y132.707 E.086
G1 X116.551 Y134.18 E.08553
G1 X117.977 Y135.438 E.0851
G1 X119.576 Y136.45 E.08468
G1 X121.307 Y137.194 E.08432
G1 X123.117 Y137.645 E.08348
G1 X123.959 Y137.747 E.03796
G1 X125 Y137.832 E.04674
G1 X125.862 Y137.762 E.0387
G1 X126.883 Y137.644 E.04599
G1 X128.693 Y137.194 E.08347
G1 X130.424 Y136.45 E.08432
G1 X132.022 Y135.438 E.08465
G1 X133.449 Y134.18 E.08513
G1 X134.667 Y132.707 E.08553
G1 X135.647 Y131.055 E.08596
G1 X136.366 Y129.263 E.08641
G1 X136.805 Y127.379 E.08657
G1 X136.952 Y125.446 E.08675
G1 X136.813 Y123.606 E.08258
M204 S15000
G1 E-1.4 F4800
;WIPE_START
G1 F14400
G1 X137.339 Y125.426 E-.6
;WIPE_END
M204 S10000
G1 X140.596 Y135.584 F18000
G1 E2 F4800
M204 S5000
;TYPE:External perimeter
G1 F2578
G1 X132.969 Y142.014 E.44643
G1 X132.804 Y142.087 E.00807
G1 X132.727 Y142.104 E.00353
G1 X117.273 Y142.104 E.69158
G1 X117.031 Y142.014 E.01155
G1 X109.404 Y135.584 E.44643
G1 X109.326 Y135.321 E.01228
G1 X113.257 Y121.696 E.6346
G1 X113.957 Y119.788 E.09095
G1 X114.946 Y118.038 E.08996
G1 X116.194 Y116.473 E.08958
G1 X117.167 Y115.584 E.05898
G1 X117.666 Y115.132 E.03013
G1 X119.328 Y114.052 E.0887
G1 X121.135 Y113.258 E.08833
G1 X123.042 Y112.774 E.08805
G1 X125 Y112.611 E.08793
G1 X126.958 Y112.774 E.08793
G1 X128.865 Y113.258 E.08805
G1 X130.672 Y114.051 E.08831
G1 X132.333 Y115.132 E.08869
G1 X133.806 Y116.473 E.08914
G1 X135.054 Y118.038 E.08958
G1 X136.043 Y119.788 E.08996
G1 X136.743 Y121.696 E.09095
G1 X140.67 Y135.335 E.63516
G1 X140.613 Y135.527 E.00896
M204 S15000
G1 X140.196 Y135.598 F18000
G1 E-1.4 F4800
;WIPE_START
G1 F14400
G1 X139.168 Y136.753 E-.6
;WIPE_END
M204 S10000
G1 X137.661 Y127.154 F18000
G1 E2 F4800
M204 S5000
;TYPE:Solid infill
;WIDTH:0.507559
G1 F2578
G1 X137.049 Y126.542 E.03938
M204 S15000
M204 S10000
G1 X137.003 Y127.141 F18000
M204 S5000
G1 F2578
G1 X137.922 Y128.06 E.05914
M204 S15000
M204 S10000
G1 X138.183 Y128.966 F18000
M204 S5000
G1 F2578
G1 X136.915 Y127.698 E.0816
M204 S15000
M204 S10000
G1 X136.793 Y128.221 F18000
M204 S5000
G1 F2578
G1 X138.443 Y129.872 E.10622
M204 S15000
M204 S10000
G1 X138.704 Y130.777 F18000
M204 S5000
G1 F2578
G1 X136.671 Y128.744 E.13083
M204 S15000
M204 S10000
G1 X136.549 Y129.267 F18000
M204 S5000
G1 F2578
G1 X138.965 Y131.683 E.15548
M204 S15000
M204 S10000
G1 X139.226 Y132.589 F18000
M204 S5000
G1 F2578
G1 X136.371 Y129.734 E.18373
M204 S15000
M204 S10000
G1 X136.186 Y130.194 F18000
M204 S5000
G1 F2578
G1 X139.486 Y133.494 E.21237
M204 S15000
M204 S10000
G1 X139.747 Y134.4 F18000
M204 S5000
G1 F2578
G1 X136.001 Y130.654 E.24107
M204 S15000
M204 S10000
G1 X135.817 Y131.115 F18000
M204 S5000
G1 F2578
G1 X137.9 Y133.198 Z.24 E.13402
G1 X139.982 Y135.28 Z.24 E.13402
M204 S15000
M204 S10000
G1 X139.632 Y135.575 F18000
M204 S5000
G1 F2578
G1 X137.605 Y133.548 Z.24 E.13041
G1 X135.579 Y131.522 Z.24 E.13041
M204 S15000
M204 S10000
G1 X135.339 Y131.927 F18000
M204 S5000
G1 F2578
G1 X139.282 Y135.87 E.25375
M204 S15000
M204 S10000
G1 X138.933 Y136.165 F18000
M204 S5000
G1 F2578
G1 X137.016 Y134.248 Z.24 E.12339
G1 X135.098 Y132.331 Z.24 E.12338
M204 S15000
M204 S10000
G1 X134.858 Y132.736 F18000
M204 S5000
G1 F2578
G1 X136.72 Y134.598 Z.24 E.11984
G1 X138.583 Y136.46 Z.24 E.11985
M204 S15000
M204 S10000
G1 X138.233 Y136.755 F18000
M204 S5000
G1 F2578
G1 X134.576 Y133.099 E.23531
M204 S15000
M204 S10000
G1 X134.284 Y133.452 F18000
M204 S5000
G1 F2578
G1 X136.083 Y135.251 Z.24 E.11579
G1 X137.883 Y137.05 Z.24 E.11579
M204 S15000
M204 S10000
G1 X137.533 Y137.345 F18000
M204 S5000
G1 F2578
G1 X135.763 Y135.575 Z.24 E.11392
G1 X133.992 Y133.805 Z.24 E.11393
M204 S15000
M204 S10000
G1 X133.7 Y134.158 F18000
M204 S5000
G1 F2578
G1 X137.183 Y137.641 E.22415
M204 S15000
M204 S10000
G1 X136.833 Y137.936 F18000
M204 S5000
G1 F2578
G1 X133.379 Y134.481 E.22231
M204 S15000
M204 S10000
G1 X133.036 Y134.783 F18000
M204 S5000
G1 F2578
G1 X136.483 Y138.231 E.22186
M204 S15000
M204 S10000
G1 X136.133 Y138.526 F18000
M204 S5000
G1 F2578
G1 X132.693 Y135.086 E.22138
M204 S15000
M204 S10000
G1 X132.351 Y135.388 F18000
M204 S5000
G1 F2578
G1 X135.783 Y138.821 E.2209
M204 S15000
M204 S10000
G1 X135.433 Y139.116 F18000
M204 S5000
G1 F2578
G1 X131.989 Y135.672 E.22164
M204 S15000
M204 S10000
G1 X131.594 Y135.922 F18000
M204 S5000
G1 F2578
G1 X135.083 Y139.411 E.22453
M204 S15000
M204 S10000
G1 X134.733 Y139.706 F18000
M204 S5000
G1 F2578
G1 X131.199 Y136.172 E.22743
M204 S15000
M204 S10000
G1 X130.805 Y136.422 F18000
M204 S5000
G1 F2578
G1 X134.383 Y140.001 E.23029
M204 S15000
M204 S10000
G1 X134.034 Y140.296 F18000
M204 S5000
G1 F2578
G1 X132.215 Y138.477 Z.24 E.11706
G1 X130.396 Y136.658 Z.24 E.11706
M204 S15000
M204 S10000
G1 X129.945 Y136.852 F18000
M204 S5000
G1 F2578
G1 X131.815 Y138.721 Z.24 E.12031
G1 X133.684 Y140.591 Z.24 E.12031
M204 S15000
M204 S10000
G1 X133.334 Y140.886 F18000
M204 S5000
G1 F2578
G1 X131.413 Y138.966 Z.24 E.12358
G1 X129.493 Y137.046 Z.24 E.12358
M204 S15000
M204 S10000
G1 X129.042 Y137.239 F18000
M204 S5000
G1 F2578
G1 X132.984 Y141.181 E.25368
M204 S15000
M204 S10000
G1 X132.634 Y141.476 F18000
M204 S5000
G1 F2578
G1 X130.601 Y139.443 Z.24 E.13083
G1 X128.568 Y137.41 Z.24 E.13083
M204 S15000
M204 S10000
G1 X128.052 Y137.539 F18000
M204 S5000
G1 F2578
G1 X130.021 Y139.508 Z.24 E.12671
G1 X131.99 Y141.477 Z.24 E.12671
M204 S15000
M204 S10000
G1 X131.345 Y141.477 F18000
M204 S5000
G1 F2578
G1 X129.44 Y139.572 Z.24 E.12259
G1 X127.535 Y137.667 Z.24 E.12259
M204 S15000
M204 S10000
G1 X127.019 Y137.795 F18000
M204 S5000
G1 F2578
G1 X130.7 Y141.477 E.23692
M204 S15000
M204 S10000
G1 X130.055 Y141.477 F18000
M204 S5000
G1 F2578
G1 X128.253 Y139.676 Z.24 E.11594
G1 X126.452 Y137.874 Z.24 E.11593
M204 S15000
M204 S10000
G1 X125.874 Y137.941 F18000
M204 S5000
G1 F2578
G1 X127.642 Y139.709 Z.24 E.11378
G1 X129.41 Y141.477 Z.24 E.11378
M204 S15000
M204 S10000
G1 X128.765 Y141.477 F18000
M204 S5000
G1 F2578
G1 X125.277 Y137.989 E.22447
M204 S15000
M204 S10000
G1 X124.624 Y137.981 F18000
M204 S5000
G1 F2578
G1 X128.12 Y141.477 E.22498
M204 S15000
M204 S10000
G1 X127.475 Y141.477 F18000
M204 S5000
G1 F2578
G1 X125.698 Y139.7 Z.24 E.11436
G1 X123.921 Y137.923 Z.24 E.11436
M204 S15000
M204 S10000
G1 X123.187 Y137.834 F18000
M204 S5000
G1 F2578
G1 X126.83 Y141.477 E.23444
M204 S15000
M204 S10000
G1 X126.185 Y141.477 F18000
M204 S5000
G1 F2578
G1 X124.266 Y139.557 Z.24 E.12353
G1 X122.346 Y137.638 Z.24 E.12353
M204 S15000
M204 S10000
G1 X121.487 Y137.424 F18000
M204 S5000
G1 F2578
G1 X123.514 Y139.451 Z.24 E.13041
G1 X125.54 Y141.477 Z.24 E.13041
M204 S15000
M204 S10000
G1 X124.895 Y141.477 F18000
M204 S5000
G1 F2578
G1 X120.432 Y137.014 E.28721
M204 S15000
G1 E-1.4 F4800
;WIPE_START
G1 F14400
G1 X121.772 Y138.354 E-.6
;WIPE_END
M204 S10000
G1 X119.195 Y136.422 F18000
G1 E2 F4800
M204 S5000
G1 F2578
G1 X121.723 Y138.949 Z.24 E.16265
G1 X124.25 Y141.477 Z.24 E.16265
M204 S15000
M204 S10000
G1 X123.605 Y141.477 F18000
M204 S5000
G1 F2578
G1 X121.244 Y139.116 Z.24 E.15196
G1 X118.882 Y136.754 Z.24 E.15196
G1 X116.521 Y134.393 Z.24 E.15196
M204 S15000
G1 E-1.4 F4800
;WIPE_START
G1 F14400
G1 X117.861 Y135.733 E-.6
;WIPE_END
M204 S10000
G1 X112.985 Y126.987 F18000
G1 E2 F4800
M204 S5000
G1 F2578
G1 X112.518 Y126.519 E.03009
M204 S15000
M204 S10000
G1 X112.373 Y127.02 F18000
M204 S5000
G1 F2578
G1 X113.096 Y127.743 E.04653
M204 S15000
M204 S10000
G1 X113.291 Y128.583 F18000
M204 S5000
G1 F2578
G1 X112.229 Y127.52 E.06838
M204 S15000
M204 S10000
G1 X112.084 Y128.021 F18000
M204 S5000
G1 F2578
G1 X113.516 Y129.453 E.09216
M204 S15000
G1 E-1.4 F4800
;WIPE_START
G1 F14400
G1 X112.176 Y128.113 E-.6
;WIPE_END
M204 S10000
G1 X113.949 Y130.531 F18000
G1 E2 F4800
M204 S5000
G1 F2578
G1 X111.94 Y128.521 E.12932
M204 S15000
M204 S10000
G1 X111.795 Y129.022 F18000
M204 S5000
G1 F2578
G1 X114.605 Y131.831 E.1808
M204 S15000
G1 E-1.4 F4800
;WIPE_START
G1 F14400
G1 X113.265 Y130.491 E-.6
;WIPE_END
M204 S10000
G1 X116.366 Y134.238 F18000
G1 E2 F4800
M204 S5000
G1 F2578
G1 X114.008 Y131.88 Z.24 E.15173
G1 X111.651 Y129.522 Z.24 E.15173
M204 S15000
M204 S10000
G1 X111.506 Y130.023 F18000
M204 S5000
G1 F2578
G1 X114.497 Y133.014 Z.24 E.19247
G1 X117.488 Y136.005 Z.24 E.19247
G1 X122.96 Y141.477 Z.24 E.35216
M204 S15000
M204 S10000
G1 X122.315 Y141.477 F18000
M204 S5000
G1 F2578
G1 X111.362 Y130.523 E.7049
M204 S15000
M204 S10000
G1 X111.217 Y131.023 F18000
M204 S5000
G1 F2578
G1 X114.701 Y134.508 Z.24 E.22424
G1 X118.186 Y137.992 Z.24 E.22424
G1 X121.67 Y141.477 Z.24 E.22424
M204 S15000
M204 S10000
G1 X121.025 Y141.477 F18000
M204 S5000
G1 F2578
G1 X117.708 Y138.159 Z.24 E.2135
G1 X114.39 Y134.842 Z.24 E.2135
G1 X111.073 Y131.524 Z.24 E.2135
M204 S15000
M204 S10000
G1 X110.928 Y132.024 F18000
M204 S5000
G1 F2578
G1 X120.38 Y141.477 E.60831
M204 S15000
M204 S10000
G1 X119.735 Y141.477 F18000
M204 S5000
G1 F2578
G1 X116.751 Y138.493 Z.24 E.19202
G1 X113.768 Y135.509 Z.24 E.19202
G1 X110.784 Y132.525 Z.24 E.19202
M204 S15000
M204 S10000
G1 X110.639 Y133.025 F18000
M204 S5000
G1 F2578
G1 X119.09 Y141.477 E.54389
M204 S15000
M204 S10000
G1 X118.445 Y141.477 F18000
M204 S5000
G1 F2578
G1 X115.795 Y138.827 Z.24 E.17055
G1 X113.145 Y136.176 Z.24 E.17055
G1 X110.495 Y133.526 Z.24 E.17055
M204 S15000
M204 S10000
G1 X110.35 Y134.026 F18000
M204 S5000
G1 F2578
G1 X117.8 Y141.477 E.47947
M204 S15000
G1 E-1.4 F4800
;WIPE_START
G1 F14400
G1 X116.46 Y140.137 E-.6
;WIPE_END
M204 S10000
G1 X116.006 Y140.327 F18000
G1 E2 F4800
M204 S5000
G1 F2578
G1 X113.105 Y137.427 Z.24 E.18665
G1 X110.205 Y134.527 Z.24 E.18664
M204 S15000
;LAYER_CHANGE
;Z:0.44
;HEIGHT:0.2
; BEFORE_LAYER_CHANGE 1 @ 0.44mm
G92 E0
G1 E-1.4 F4800
;WIPE_START
G1 F14400
G1 X111.545 Y135.867 E-.6
;WIPE_END
G1 Z.44 F18000
; AFTER_LAYER_CHANGE 1 @ 0.44mm
M104 S240 ; set temperature
M204 S10000
G1 X136.198 Y123.63
G1 E2 F4800
M204 S5000
;TYPE:Perimeter
;WIDTH:0.45
G1 F3684.783

G1 X136.337 Y125.445 E.06162
G1 X136.198 Y127.285 E.06246
G1 X135.993 Y128.174 E.03088
G1 X135.781 Y129.08 E.0315
G1 X135.098 Y130.783 E.06211
G1 X134.166 Y132.355 E.06186
G1 X133.008 Y133.754 E.06147
G1 X131.656 Y134.949 E.06108
G1 F3683.633
G1 X130.339 Y135.787 E.05284
G1 X130.14 Y135.912 E.00795
G1 X128.499 Y136.617 E.06046
G1 F3684.777
G1 X126.774 Y137.046 E.06017
G1 X125 Y137.208 E.0603
G1 X123.226 Y137.046 E.0603
G1 X121.501 Y136.617 E.06017
G1 X119.859 Y135.912 E.06049
G1 X118.344 Y134.95 E.06075
G1 X116.992 Y133.754 E.0611
G1 X115.834 Y132.355 E.06147
G1 X114.902 Y130.783 E.06186
G1 X114.219 Y129.08 E.06211
G1 X113.803 Y127.285 E.06237
G1 X113.663 Y125.445 E.06246
G1 X113.804 Y123.605 E.06246
G1 X114.221 Y121.811 E.06234
G1 X114.905 Y120.109 E.06209
G1 X115.836 Y118.538 E.06181
G1 X116.99 Y117.136 E.06146
G1 X118.341 Y115.938 E.06112
G1 X119.857 Y114.975 E.06079
G1 X121.5 Y114.269 E.06053
G1 X123.228 Y113.839 E.06027
G1 X125 Y113.695 E.06018
G1 X126.772 Y113.839 E.06018
G1 X128.5 Y114.27 E.06028
G1 X130.143 Y114.975 E.06052
G1 X131.659 Y115.938 E.06079
G1 F3546.531
G1 X133.011 Y117.136 E.06114
G1 F3236.002
G1 X134.164 Y118.538 E.06144
G1 F2908.154
G1 X135.095 Y120.109 E.06181
G1 F2611.807
G1 X135.778 Y121.812 E.06211
G1 F2347.051
G1 X136.188 Y123.571 E.06114

M204 S15000
M204 S10000
G1 X135.815 Y123.754 F18000
;TYPE:External perimeter
;WIDTH:0.42
G1 F2400

G1 X135.944 Y125.445 E.05317
G1 X135.809 Y127.225 E.05597
G1 X135.406 Y128.962 E.05591
G1 X134.745 Y130.609 E.05564
G1 X133.844 Y132.128 E.05538
G1 X132.725 Y133.48 E.05503
G1 X131.42 Y134.635 E.05464
G1 X130.129 Y135.455 E.04795
G1 X129.957 Y135.564 E.00638
G1 X128.374 Y136.245 E.05403
G1 X126.709 Y136.658 E.05379
G1 X125 Y136.815 E.05381
G1 X123.291 Y136.659 E.05381
G1 X121.626 Y136.245 E.05379
G1 X120.043 Y135.564 E.05403
G1 X118.58 Y134.635 E.05434
G1 X117.275 Y133.48 E.05464
G1 X116.156 Y132.128 E.05503
G1 X115.255 Y130.609 E.05538
G1 X114.594 Y128.962 E.05564
G1 X114.191 Y127.226 E.05588
G1 X114.056 Y125.445 E.056
G1 X114.193 Y123.665 E.05598
G1 X114.596 Y121.93 E.05585
G1 X115.258 Y120.283 E.05566
G1 X116.158 Y118.764 E.05536
G1 X117.273 Y117.409 E.05502
G1 X118.578 Y116.252 E.05468
G1 X120.041 Y115.323 E.05434
G1 X121.625 Y114.642 E.05406
G1 X123.292 Y114.227 E.05386
G1 X125 Y114.088 E.05373
G1 X126.708 Y114.227 E.05373
G1 X128.375 Y114.642 E.05386
G1 X129.959 Y115.322 E.05405
G1 X131.422 Y116.252 E.05435
G1 X132.727 Y117.409 E.05468
G1 X133.842 Y118.764 E.05502
G1 X134.687 Y120.188 E.05192
G1 X134.742 Y120.283 E.00344
